X:1
T:A minor                    Alexander Gillet, 1779
T:Isaac Watts, 1717 (Psalm 25, Part 1)            66. 86. (S. M.)
T:Psalm 25
T:Transcribed from Law's Select Harmony, 1779.
%%score [ 1 2 3 4 ]
L:1/8
Q:1/4=130
M:4/4
K:C
V:1 treble nm="Tr." snm="Tr."
V:2 treble nm="C." snm="C."
V:3 treble-8 nm="T." snm="T."
V:4 bass nm="B." snm="B."
V:1
 e4 c2 c2 | B4 A4 | ^G8 | z4 B4 | (c3 d e2 d2 | c6) B2 | A4 ^G4 | A8 | z4 e4 | c2 B2 G4 | %10
w: 1.~I lift my|soul to|God,|My|trust~ _ _ _|_ is|in his|name:|Let|not my foes|
w: 2.~Sin, and the|powers of|hell,|Per-|suade~ _ _ _|_ me|to des-|pair:|Lord,|make me know|
 c4 c2 c2 | B8 | z4 c4 | e2 e2 c2 c2 | B4 e4 | d2 f2 e4 | B8 | A8 |] %18
w: that seek my|blood|Still|tri- umph in my|shame, Still|tri- umph in|my|shame.|
w: thy cove- nant|well,|That|I may 'scape the|snare, That|I may 'scape|the|snare.|
V:2
 E4 E2 E2 | E4 E4 | E8 | z4 E4 | (E6 F2 | G6) G2 | E4 E4 | E8 | z4 E4 | G2 G2 G4 | G4 E2 E2 | E8 | %12
w: 3.~From the first|dawn- ing|light|Till|the~ _|_ dark|eve- ning|rise,|For|thy sal- va-|tion, Lord, I|wait,|
w: 4.~Re- mem- ber|all thy|grace,|And|lead~ _|_ me|in thy|truth;|For-|give the sins|of ri- per|days,|
 z4 G4 | A2 A2 E2 E2 | E4 E4 | F2 F2 E4 | E8 | E8 |] %18
w: With|ev- er- long- ing|eyes, With|ev- er- long-|ing|eyes.|
w: And|fol- lies of my|youth, And|fol- lies of|my|youth.|
V:3
 E4 A2 A2 | ^G4 (3(A2 B2 c2) | B8 | z4 B4 | (A3 B c3 d | e6) d2 | c4 B4 | A8 | z4 c4 | e2 e2 d4 | %10
w: 5.~The Lord is|just and~ _ _|kind,|The|meek~ _ _ _|_ shall|learn his|ways,|And|eve- ry hum-|
w: 6.~For his own|good- ness'~ _ _|sake|He|saves~ _ _ _|_ my|soul from|shame:|He|par- dons, though|
 e4 g2 g2 | e8 | z4 e4 | c2 c2 A2 A2 | B4 e4 | A2 c2 B4 | ^G8 | A8 |] %18
w: ble sin- ner|find|The|me- thods of his|grace, The|me- thods of|his|grace.|
w: my guilt be|great,|Through|my Re- dee- mer's|name, Through|my Re- dee-|mer's|name.|
V:4
 E,4 A,,2 A,,2 | E,4 A,4 | E,8- | E,4 E,4 | (A,3 G, F,2 E,D, | C,6) G,2 | A,4 E,4 | A,,8- | %8
 A,,4 A,4 | E,2 E,2 G,4 | C,4 C,2 C,2 | E,8- | E,4 E,4 | A,2 A,2 A,,2 A,,2 | E,4 C,4 | %15
 D,2 D,2 E,4 | E,8 | A,,8 |] %18

